X:49
T:Black Swan
C:Taz Tarry 1 January 2023
M:3/4
L:1/8
K:C
"Maestoso & Espressivo"
C6|  E6|  F6|  D6|F6 |  A2 F2 c2|B6|c6|
d6|  B2 G2 c2|  B2 G2E2 |F6 |  A2 F2D2 | E6 |  D2 B,2 C2|  C6 ||
G6|  B2 d2g2|g6|a6 | a2 g2 c2|  e2 d2 B2|A6|d6|
c6|  e2 c2 A2 |d6|a6|  g2 e2 c2 | A6|  d2 B2G2| c6|]


